X: 021985
T: Boys of Ballycahill HP
S: "Roche Collection of Traditional Irish Music" [III/63/180]
L: 1/8
M: 4/4
R: hornpipe
K: D
AG | FAdf ecAG | FAdf gecA | FAdB cdec | dcdf ecAG |
FAdf ecAG | FAdf gecA | FAdB cdec | dfec d2 :|
de | f2 ff fgfe | decA d2 cB | ABAG FAdf | edcB Acde |
f2 ff fgfe | decA d2 FA | Bdgf edce | dAFE D2 :|
